X: 14
T: Mrs Dundas of Arniston's Strathspey
C: 
R: strathspey
Q: "Slow"
B: William Shepherd "1st Collection" 1793 p.1 #4
F: http://imslp.org/wiki/File:PMLP73094-Shepherd_Collections_HMT.pdf
C: William Shepherd (17??-1812)
Z: 2012 John Chambers <jc:trillian.mit.edu>
M: C
L: 1/16
K: Em
B,2 |\
EE3 TE2FG {F}A2D2 (GF).E.D | B,3E (EF)GA cBAG B2^c2 |\
d3d (ed)cB AdAG GFED |1 TE3FTG3A B2B,2E2 :|2 TE3FTG3A B3Be2 ||
|: B2 |\
e3f {ef}g3e d2D2TF2A2 | e3f {ef}g3e (f2^d2e2)(B2 |\
d3)A- A2GF d2D2F2A2 |1 E3EG3A B2B2e2 :|2 E3FG3A B2^c^de2 |]
